icons/thumbsup-16.svg

<svg xmlns="http://www.w3.org/2000/svg" width="16" height="16" viewBox="0 0 16 16"><path d="M8.834.066c.763.087 1.5.295 2.01.884.505.581.656 1.378.656 2.3 0 .467-.087 1.119-.157 1.637L11.328 5h1.422c.603 0 1.174.085 1.668.333.508.254.911.679 1.137 1.2.453.998.438 2.447.188 4.316l-.04.306c-.105.79-.195 1.473-.313 2.033-.131.63-.315 1.209-.668 1.672C13.97 15.847 12.706 16 11 16c-1.848 0-3.234-.333-4.388-.653-.165-.045-.323-.09-.475-.133-.658-.186-1.2-.34-1.725-.415A1.75 1.75 0 012.75 16h-1A1.75 1.75 0 010 14.25v-7.5C0 5.784.784 5 1.75 5h1a1.75 1.75 0 011.514.872c.258-.105.59-.268.918-.508C5.853 4.874 6.5 4.079 6.5 2.75v-.5c0-1.202.994-2.337 2.334-2.184zM4.5 13.3c.705.088 1.39.284 2.072.478l.441.125c1.096.305 2.334.598 3.987.598 1.794 0 2.28-.223 2.528-.549.147-.193.276-.505.394-1.07.105-.502.188-1.124.295-1.93l.04-.3c.25-1.882.189-2.933-.068-3.497a.921.921 0 00-.442-.48c-.208-.104-.52-.174-.997-.174H11c-.686 0-1.295-.577-1.206-1.336.023-.192.05-.39.076-.586.065-.488.13-.97.13-1.328 0-.809-.144-1.15-.288-1.316-.137-.158-.402-.304-1.048-.378C8.357 1.521 8 1.793 8 2.25v.5c0 1.922-.978 3.128-1.933 3.825a5.831 5.831 0 01-1.567.81zM2.75 6.5h-1a.25.25 0 00-.25.25v7.5c0 .138.112.25.25.25h1a.25.25 0 00.25-.25v-7.5a.25.25 0 00-.25-.25z"/></svg>

<svg xmlns="http://www.w3.org/2000/svg" width="16" height="16" viewBox="0 0 16 16">
  <defs/>
  <path d="M8.834,0.066 C9.597,0.153 10.334,0.361 10.844,0.95 C11.349,1.531 11.5,2.328 11.5,3.25 C11.5,3.717 11.413,4.369 11.343,4.887 L11.328,5 L12.75,5 C13.353,5 13.924,5.085 14.418,5.333 C14.926,5.587 15.329,6.012 15.555,6.533 C16.008,7.531 15.993,8.98 15.743,10.849 L15.703,11.155 C15.598,11.945 15.508,12.628 15.39,13.188 C15.259,13.818 15.075,14.397 14.722,14.86 C13.97,15.847 12.706,16 11,16 C9.152,16 7.766,15.667 6.612,15.347 C6.447,15.302 6.289,15.257 6.137,15.214 C5.479,15.028 4.937,14.874 4.412,14.799 C4.175,15.516 3.505,16 2.75,16 L1.75,16 C0.784,16 0,15.216 0,14.25 L0,6.75 C0,5.784 0.784,5 1.75,5 L2.75,5 C3.374,5 3.951,5.332 4.264,5.872 C4.522,5.767 4.854,5.604 5.182,5.364 C5.853,4.874 6.5,4.079 6.5,2.75 L6.5,2.25 C6.5,1.048 7.494,-0.087 8.834,0.066 Z M4.5,13.3 C5.205,13.388 5.89,13.584 6.572,13.778 L7.013,13.903 C8.109,14.208 9.347,14.501 11,14.501 C12.794,14.501 13.28,14.278 13.528,13.952 C13.675,13.759 13.804,13.447 13.922,12.882 C14.027,12.38 14.11,11.758 14.217,10.952 L14.257,10.652 C14.507,8.77 14.446,7.719 14.189,7.155 C14.105,6.946 13.948,6.776 13.747,6.675 C13.539,6.571 13.227,6.501 12.75,6.501 L11,6.501 C10.314,6.501 9.705,5.924 9.794,5.165 C9.817,4.973 9.844,4.775 9.87,4.579 C9.935,4.091 10,3.609 10,3.251 C10,2.442 9.856,2.101 9.712,1.935 C9.575,1.777 9.31,1.631 8.664,1.557 C8.357,1.521 8,1.793 8,2.25 L8,2.75 C8,4.672 7.022,5.878 6.067,6.575 C5.589,6.923 5.06,7.196 4.5,7.385 Z M2.75,6.5 L1.75,6.5 C1.612,6.5 1.5,6.612 1.5,6.75 L1.5,14.25 C1.5,14.388 1.612,14.5 1.75,14.5 L2.75,14.5 C2.888,14.5 3,14.388 3,14.25 L3,6.75 C3,6.612 2.888,6.5 2.75,6.5 Z"/>
</svg>
